X: 156
T:Untitled
M:4/4
S:Altan Horse with a Heart
F:http://blackrosetheband.googlepages.com/ABCTUNES.ABC May 2009
R:
K:D
D2 FA GEFE|(3DED FA d2 ef|geag f2dc|AG (3GGG EFGE|
D2 FA GEFE|(3DED FA d2 ef|geag edcd|1eddc dBAF:|2eddc d2zg||
|:fdfa g2 ag|fdfa g2 ag|fd=cA BG (3GGG|ABcA dcAg|
fdfa g2 ag|fdfa g2 ag|fd=cA BG (3GGG|1ABcA d2zg:|2ABcA dBAF||

